public/payments/common/tupay.svg

<svg width="89" height="28" viewBox="0 0 89 28" fill="none" xmlns="http://www.w3.org/2000/svg">
<g clip-path="url(#clip0_229_170)">
<path d="M32.0268 4.54785H28.6373V8.74553H26.4951V11.7347H28.6373V21.3601H32.0268V11.7347H34.1961V8.74553H32.0268V4.54785ZM43.6322 16.4239C43.6446 16.9003 43.5374 17.3721 43.3204 17.7952C43.1212 18.17 42.8201 18.4792 42.4526 18.6863C42.0487 18.9049 41.5956 19.0135 41.1377 19.0017C40.4145 19.0017 39.8901 18.7777 39.5647 18.3298C39.2395 17.882 39.0769 17.2467 39.0769 16.4239V8.74553H35.4432V16.8079C35.4432 18.3072 35.8093 19.4864 36.5414 20.3454C37.2735 21.205 38.3808 21.6346 39.863 21.6343C40.7486 21.6343 41.4988 21.4469 42.1136 21.0721C42.7281 20.6976 43.2342 20.1537 43.6322 19.4405V21.3601H47.1301V8.74553H43.6322V16.4239ZM59.3548 9.12946C58.4559 8.62146 57.4426 8.357 56.4129 8.36166C55.346 8.36166 54.4195 8.63586 53.6334 9.18433C53.0267 9.6116 52.5219 10.1703 52.1557 10.8198V8.74553H48.6305V27.6665H52.1557V19.2781C52.5202 19.9309 53.0252 20.4925 53.6334 20.9213C54.4198 21.4698 55.3463 21.744 56.4129 21.7439C57.4426 21.7487 58.456 21.4841 59.3548 20.9761C60.2676 20.4645 61.0042 19.7058 61.5649 18.7001C62.1249 17.6949 62.4051 16.4791 62.4055 15.0529C62.4055 13.6088 62.1253 12.3885 61.5649 11.3919C61.0044 10.3957 60.2677 9.6416 59.3548 9.12946ZM58.3109 16.9725C58.0215 17.4851 57.5936 17.9037 57.0772 18.1789C56.5544 18.4551 55.9722 18.5964 55.3823 18.5904C54.8471 18.5877 54.3208 18.4511 53.8504 18.1927C53.342 17.9173 52.9195 17.5043 52.6302 16.9998C52.3136 16.4699 52.1554 15.8209 52.1557 15.0529C52.1557 14.285 52.3138 13.636 52.6302 13.1058C52.9197 12.6015 53.3422 12.1885 53.8504 11.9129C54.3209 11.6548 54.8471 11.5182 55.3823 11.5153C55.9722 11.5093 56.5543 11.6506 57.0772 11.9267C57.5935 12.2021 58.0214 12.6207 58.3109 13.1333C58.618 13.6637 58.7718 14.3035 58.7719 15.0529C58.7719 15.8026 58.6182 16.4425 58.3109 16.9725ZM72.5409 8.8828C71.709 8.57213 70.7603 8.41666 69.6936 8.41646C68.5366 8.41646 67.4877 8.57646 66.5483 8.8964C65.7278 9.16586 64.9299 9.50053 64.1619 9.89733L65.4634 12.3105C65.7315 12.1337 66.0123 11.9779 66.3037 11.8444C67.2491 11.4101 68.2755 11.1856 69.3139 11.1862C69.6606 11.1827 70.0061 11.2195 70.3443 11.2959C70.6317 11.3601 70.9033 11.4813 71.144 11.6525C71.3635 11.8086 71.5369 12.0218 71.6457 12.2695C71.761 12.5518 71.8164 12.8553 71.8085 13.1607V14.5043C71.3246 14.2397 70.8104 14.0371 70.2764 13.9011C69.5894 13.7267 68.8834 13.6437 68.1753 13.6543C66.6201 13.6543 65.4179 14.0107 64.5686 14.7237C63.7187 15.4368 63.2939 16.4057 63.2942 17.6306C63.2942 18.4901 63.4975 19.2167 63.9043 19.8106C64.3094 20.4036 64.8674 20.8731 65.5177 21.1681C66.1982 21.4815 66.9392 21.6405 67.6868 21.6343C68.4338 21.6366 69.1741 21.4971 69.8696 21.2229C70.5361 20.9699 71.1255 20.5444 71.5784 19.9889C71.6622 19.8845 71.7393 19.7742 71.8085 19.6589V21.3601H75.1978V12.4203C75.1978 11.5611 74.9631 10.8344 74.493 10.2401C74.023 9.64626 73.3723 9.1938 72.5409 8.8828ZM71.8085 16.3142C71.8085 16.9176 71.6727 17.4341 71.4017 17.8637C71.1427 18.2822 70.7774 18.6231 70.3443 18.8508C69.8914 19.0841 69.3884 19.2018 68.8801 19.1936C68.5221 19.1979 68.1668 19.1279 67.8358 18.9881C67.5352 18.8637 67.2761 18.6542 67.0902 18.3847C66.9181 18.106 66.8245 17.7849 66.8192 17.4561C66.8146 17.1274 66.899 16.8037 67.0632 16.5199C67.2517 16.2533 67.5167 16.0521 67.8226 15.9441C68.1654 15.8069 68.6085 15.7384 69.151 15.7383C69.7984 15.7354 70.4425 15.8278 71.0629 16.0127C71.318 16.0894 71.5672 16.1848 71.8085 16.2981V16.3142ZM85.1948 8.74553L82.1127 16.5688L78.9852 8.74553H75.0804L80.2596 20.0985L76.9962 27.6665H80.6011L88.855 8.74553H85.1948Z" fill="#233DB4"/>
<path d="M10.9061 0.333313C9.47388 0.333297 8.05569 0.618571 6.73249 1.17285C5.40931 1.72712 4.20702 2.53954 3.1943 3.56372C2.18156 4.58791 1.37823 5.80379 0.830146 7.14191C0.282068 8.48011 -1.62416e-05 9.91431 7.01377e-10 11.3627C7.0137e-10 16.7318 8.47418 25.49 10.4819 27.4906C10.5946 27.6034 10.7467 27.6666 10.9051 27.6666C11.0636 27.6666 11.2156 27.6034 11.3283 27.4906C13.3381 25.49 21.8102 16.7318 21.8102 11.3627C21.8106 9.91438 21.5289 8.48018 20.9811 7.14191C20.4333 5.80373 19.6301 4.58778 18.6175 3.56355C17.6049 2.53931 16.4027 1.72687 15.0796 1.17261C13.7564 0.618359 12.3383 0.333162 10.9061 0.333313ZM10.9049 18.0694C9.59334 18.0693 8.31121 17.676 7.22073 16.939C6.13019 16.2021 5.28024 15.1547 4.77834 13.9292C4.27644 12.7038 4.14513 11.3554 4.40101 10.0545C4.6569 8.75358 5.28848 7.55858 6.2159 6.6207C7.14334 5.68279 8.32493 5.04406 9.61127 4.78529C10.8977 4.52651 12.231 4.65931 13.4428 5.16688C14.6545 5.67445 15.6902 6.53401 16.4189 7.63685C17.1476 8.73971 17.5366 10.0363 17.5366 11.3627C17.5346 13.1408 16.8354 14.8456 15.5921 16.1029C14.3488 17.3602 12.6631 18.0674 10.9049 18.0694ZM13.6916 11.4838C13.5125 11.2782 13.3038 11.1011 13.0725 10.9584C12.8179 10.805 12.5497 10.6759 12.2715 10.5726C11.9647 10.461 11.6775 10.3576 11.4148 10.2763C11.1902 10.2138 10.9753 10.1198 10.7765 9.99711C10.7021 9.95685 10.6402 9.89671 10.5973 9.82325C10.5545 9.74978 10.5324 9.66585 10.5334 9.58058C10.5345 9.49751 10.5584 9.41631 10.6023 9.34611C10.6505 9.26711 10.7194 9.20311 10.8015 9.16138C10.9117 9.10478 11.0343 9.07698 11.158 9.08051C11.3007 9.08345 11.4411 9.11785 11.5694 9.18125C11.7216 9.25998 11.8591 9.36485 11.9758 9.49118C12.1208 9.64858 12.2411 9.82765 12.3323 10.022L14.1142 9.03031C13.9338 8.73585 13.7175 8.46538 13.4705 8.22538C13.2008 7.96551 12.881 7.76485 12.5311 7.63585C12.3212 7.55591 12.1035 7.49878 11.8816 7.46551L12.0393 6.40347C11.6672 6.32056 11.2874 6.27845 10.9065 6.27787C10.6717 6.27908 10.4373 6.29583 10.2047 6.32803L10.3177 7.47911C10.0349 7.52525 9.75908 7.60798 9.49716 7.72525C9.08716 7.90225 8.72793 8.18098 8.45276 8.53571C8.20652 8.84325 8.0719 9.22685 8.07131 9.62258C8.06234 9.97325 8.13921 10.3207 8.29513 10.634C8.43614 10.91 8.6297 11.155 8.8646 11.355C9.07945 11.5486 9.31691 11.7146 9.57172 11.8497C9.78301 11.9623 9.99977 12.0639 10.2212 12.1542C10.5277 12.2744 10.7903 12.3778 11.003 12.4587C11.1783 12.5251 11.346 12.6104 11.5032 12.713C11.556 12.7502 11.5992 12.7994 11.6295 12.8568C11.6597 12.914 11.6761 12.9778 11.6775 13.0428C11.681 13.137 11.6548 13.23 11.6028 13.3084C11.5486 13.3873 11.4681 13.4438 11.376 13.4674C11.2456 13.5039 11.1106 13.521 10.9753 13.518C10.75 13.5205 10.5265 13.4777 10.3177 13.392C10.1068 13.3018 9.91539 13.1709 9.754 13.0066C9.55089 12.7954 9.36689 12.5662 9.20412 12.3218L7.58524 13.518C7.77385 13.8632 8.02938 14.1664 8.33666 14.4093C8.69213 14.7014 9.09145 14.9344 9.51944 15.0996C9.77721 15.2039 10.046 15.2778 10.3204 15.32L10.2155 16.3906C10.4435 16.4229 10.6735 16.4397 10.9038 16.4408C11.2762 16.4394 11.6474 16.3992 12.0116 16.3206L11.8624 15.3033C12.1296 15.2617 12.393 15.1982 12.6499 15.1136C13.1444 14.9428 13.5312 14.6858 13.8077 14.3366C14.0882 13.9694 14.2336 13.515 14.2192 13.0513L14.225 13.0455C14.2289 12.7494 14.184 12.4548 14.0923 12.1736C14.0012 11.921 13.8655 11.6872 13.6916 11.4838Z" fill="#233DB4"/>
</g>
<defs>
<clipPath id="clip0_229_170">
<rect width="89" height="28" fill="white"/>
</clipPath>
</defs>
</svg>

<svg xmlns="http://www.w3.org/2000/svg" width="89" height="28" fill="none"><g fill="#233DB4" clip-path="url(#a)"><path d="M32.03 4.55h-3.4v4.2H26.5v2.98h2.14v9.63h3.39v-9.63h2.17V8.75h-2.17v-4.2Zm11.6 11.87c.01.48-.1.95-.31 1.38-.2.37-.5.68-.87.89-.4.21-.85.32-1.31.31-.73 0-1.25-.22-1.58-.67a3.2 3.2 0 0 1-.48-1.9V8.74h-3.64v8.06c0 1.5.37 2.68 1.1 3.54.73.85 1.84 1.28 3.32 1.28.89 0 1.64-.18 2.25-.56a4.32 4.32 0 0 0 1.52-1.63v1.92h3.5V8.75h-3.5v7.67Zm15.72-7.3c-.9-.5-1.9-.76-2.94-.76a4.73 4.73 0 0 0-4.25 2.46V8.75h-3.53v18.92h3.53v-8.4a4.73 4.73 0 0 0 4.26 2.47 5.73 5.73 0 0 0 5.15-3.04c.55-1 .84-2.22.84-3.65 0-1.44-.28-2.66-.85-3.66-.56-1-1.3-1.75-2.2-2.26Zm-1.04 7.85c-.29.52-.72.93-1.23 1.2-.53.29-1.1.43-1.7.42A3.21 3.21 0 0 1 52.63 17a3.73 3.73 0 0 1-.47-1.95c0-.77.15-1.41.47-1.94a3.22 3.22 0 0 1 2.75-1.6c.6 0 1.17.14 1.7.42.51.27.94.7 1.23 1.2.3.53.46 1.17.46 1.92s-.15 1.4-.46 1.92Zm14.23-8.09a9.72 9.72 0 0 0-6 .01c-.81.28-1.61.61-2.38 1l1.3 2.42a7.2 7.2 0 0 1 3.85-1.12c.35 0 .7.03 1.03.1.3.07.56.2.8.36.22.16.4.37.5.62.12.28.18.59.17.9v1.33c-.49-.26-1-.46-1.53-.6a8.05 8.05 0 0 0-2.1-.25c-1.56 0-2.76.36-3.61 1.07a3.6 3.6 0 0 0-1.28 2.91c0 .86.2 1.59.61 2.18.4.6.97 1.06 1.62 1.36.68.31 1.42.47 2.17.46a5.9 5.9 0 0 0 2.18-.4 4.07 4.07 0 0 0 1.94-1.57v1.7h3.39v-8.94a3.4 3.4 0 0 0-.7-2.18 4.37 4.37 0 0 0-1.96-1.36Zm-.73 7.43c0 .6-.14 1.12-.4 1.55-.27.42-.63.76-1.07 1a3.09 3.09 0 0 1-2.5.13 1.7 1.7 0 0 1-.75-.6 1.82 1.82 0 0 1-.03-1.87c.2-.27.46-.47.76-.58.35-.13.79-.2 1.33-.2a6.59 6.59 0 0 1 2.66.56v.01Zm13.38-7.56-3.08 7.82L79 8.75h-3.91l5.18 11.35L77 27.67h3.6l8.26-18.92h-3.67ZM10.9.33a10.8 10.8 0 0 0-7.7 3.23 11.04 11.04 0 0 0-3.2 7.8C0 16.73 8.47 25.5 10.48 27.5a.6.6 0 0 0 .85 0c2-2 10.48-10.76 10.48-16.13a11.14 11.14 0 0 0-3.2-7.8 10.9 10.9 0 0 0-7.7-3.23Zm0 17.74a6.58 6.58 0 0 1-6.12-4.14 6.78 6.78 0 0 1 1.44-7.3 6.6 6.6 0 0 1 11.32 4.73c0 1.78-.7 3.49-1.95 4.74a6.6 6.6 0 0 1-4.69 1.97Zm2.8-6.59a2.7 2.7 0 0 0-.63-.52 4.77 4.77 0 0 0-.8-.39l-.86-.3a2.48 2.48 0 0 1-.63-.27.46.46 0 0 1-.18-.65.5.5 0 0 1 .2-.19.73.73 0 0 1 .36-.08c.14 0 .28.04.4.1.16.08.3.18.42.31.14.16.26.34.35.53l1.78-.99c-.18-.3-.4-.56-.64-.8a2.7 2.7 0 0 0-.94-.6 3.13 3.13 0 0 0-.65-.16l.16-1.07a5.25 5.25 0 0 0-1.84-.07l.12 1.15c-.29.05-.56.13-.82.25-.41.17-.77.45-1.05.8-.24.31-.38.7-.38 1.1a2.15 2.15 0 0 0 .8 1.72c.2.2.45.36.7.5a7 7 0 0 0 .65.3c.3.12.57.23.78.3.18.08.35.16.5.26a.41.41 0 0 1 .18.33c0 .1-.03.19-.08.27a.4.4 0 0 1-.22.16A1.68 1.68 0 0 1 9.76 13c-.2-.21-.4-.44-.56-.69l-1.61 1.2c.18.34.44.65.75.89a4.3 4.3 0 0 0 1.98.91l-.1 1.07a5.08 5.08 0 0 0 1.8-.07l-.16-1.02c.27-.04.53-.1.79-.19.5-.17.88-.42 1.16-.77.28-.37.42-.82.4-1.29h.01a2.22 2.22 0 0 0-.53-1.56Z"/></g><defs><clipPath id="a"><path fill="#fff" d="M0 0h89v28H0z"/></clipPath></defs></svg>
